X:1
T:Repentance, LM
T:Theodore E. Perkins (1831-1912)
T:Repentance, LM
T:Public Domain
C:Theodore E. Perkins (1831-1912)
Z:Public Domain
%%score ( 1 2 ) ( 3 4 )
L:1/8
M:4/4
K:F
V:1 treble 
V:2 treble 
V:3 bass 
V:4 bass 
V:1
 [CF]4 [DF]2 [EG]2 | [FA]4 F4 | [DG]4 (F2 E2) | [CF]8 | [EG]4 [EG]2 [FA]2 | [GB]4 [EG]4 | %6
 [Fc]4 (A2 F2) | [EG]8 | [CF]4 [DF]2 [EG]2 | [FA]4 [Fc]4 | [EG]4 ([EG]2 [_EA]2) | [DB]8 | %12
 [EB]4 [FA]2 [EG]2 | [Fc]4 c2 B2 | [FA]4 (E2 C2) | [CF]8 |] %16
V:2
 x8 | x4 F4 | x4 C4 | x8 | x8 | x8 | x4 F4 | x8 | x8 | x8 | x8 | x8 | x8 | x4 F4 | x4 G4 | x8 |] %16
V:3
 [F,A,]4 [D,A,]2 [C,C]2 | [F,C]4 [A,,C]4 | [B,,B,]4 (A,2 G,2) | [F,A,]8 | [C,C]4 [C,C]2 [C,C]2 | %5
 [C,C]4 (C2 B,2) | [A,C]4 ([F,C]2 [D,=B,]2) | [C,C]8 | [F,A,]4 [D,A,]2 [C,C]2 | [F,C]4 [A,,C]4 | %10
 [C,C]4 (C,2 F,2) | [B,,B,]8 | [C,G,]4 [C,C]2 [B,,C]2 | [A,,C]4 [B,,D]4 | [C,C]4 [C,B,]4 | %15
 [F,A,]8 |] %16
V:4
 x8 | x8 | x4 C,4 | x8 | x8 | x4 C4 | x8 | x8 | x8 | x8 | x4 C4 | x8 | x8 | x8 | x8 | x8 |] %16

